modules/hawcons-filled/icons/icon-41-one-finger-tap-hold.svg

<?xml version="1.0" encoding="UTF-8" standalone="no"?>
<svg width="32px" height="32px" viewBox="0 0 32 32" version="1.1" xmlns="http://www.w3.org/2000/svg" xmlns:xlink="http://www.w3.org/1999/xlink" xmlns:sketch="http://www.bohemiancoding.com/sketch/ns">
    <!-- Generator: Sketch 3.0.3 (7891) - http://www.bohemiancoding.com/sketch -->
    <title>icon 41 one finger tap hold</title>
    <desc>Created with Sketch.</desc>
    <defs></defs>
    <g id="Page-1" stroke="none" stroke-width="1" fill="none" fill-rule="evenodd" sketch:type="MSPage">
        <g id="icon-41-one-finger-tap-hold" sketch:type="MSArtboardGroup" fill="#929292">
            <path d="M25,2.03544442 C26.6961471,2.27805923 28,3.73676395 28,5.5 C28,7.43299672 26.4329967,9 24.5,9 C22.5670033,9 21,7.43299672 21,5.5 C21,3.73676395 22.3038529,2.27805923 24,2.03544442 L24,6 L25,6 L25,2.03544442 L25,2.03544442 L25,2.03544442 Z M11.5,10 C9.01471863,10 7,12.0135683 7,14.5050269 L7,31 L16,31 L16,14.5050269 C16,12.0169692 13.9802243,10 11.5,10 L11.5,10 Z M11.5,12 C10.1192881,12 9,13.1285541 9,14.5097752 L9,18 L14,18 L14,14.5097752 C14,13.1236646 12.8903379,12 11.5,12 L11.5,12 Z M9,21 L9,22 L14,22 L14,21 L9,21 L9,21 Z M9,23 L9,24 L14,24 L14,23 L9,23 L9,23 Z M24.5,10 C26.9852815,10 29,7.9852815 29,5.5 C29,3.0147185 26.9852815,1 24.5,1 C22.0147185,1 20,3.0147185 20,5.5 C20,7.9852815 22.0147185,10 24.5,10 L24.5,10 Z M25,5 L25,6 L27,6 L27,5 L25,5 L25,5 Z M17,20.9809678 C18.8354094,19.4218311 20,17.096918 20,14.5 C20,9.80557939 16.1944206,6 11.5,6 C6.80557939,6 3,9.80557939 3,14.5 C3,17.096918 4.16459055,19.4218311 6,20.9809678 L6,19.5990687 C4.75882544,18.2609299 4,16.4690816 4,14.5 C4,10.3578642 7.35786417,7 11.5,7 C15.6421358,7 19,10.3578642 19,14.5 C19,16.4690816 18.2411746,18.2609299 17,19.5990687 L17,20.9809678 L17,20.9809678 L17,20.9809678 Z" id="one-finger-tap-hold" sketch:type="MSShapeGroup"></path>
        </g>
    </g>
</svg>

<svg width="32" height="32" viewBox="0 0 32 32" xmlns="http://www.w3.org/2000/svg"><path d="M25 2.035a3.5 3.5 0 1 1-1 0V6h1V2.035zM11.5 10A4.5 4.5 0 0 0 7 14.505V31h9V14.505A4.506 4.506 0 0 0 11.5 10zm0 2C10.12 12 9 13.129 9 14.51V18h5v-3.49c0-1.386-1.11-2.51-2.5-2.51zM9 21v1h5v-1H9zm0 2v1h5v-1H9zm15.5-13a4.5 4.5 0 1 0 0-9 4.5 4.5 0 0 0 0 9zm.5-5v1h2V5h-2zm-8 15.981a8.5 8.5 0 1 0-11 0v-1.382a7.5 7.5 0 1 1 11 0v1.382z" fill="#929292" fill-rule="evenodd"/></svg>
